static/assets/img/icons/theme/home/ladder.svg

<svg height="24" viewBox="0 0 24 24" width="24" xmlns="http://www.w3.org/2000/svg"><g fill="none" fill-rule="evenodd"><path d="m0 0h24v24h-24z" opacity="0"/><g fill="#000"><path d="m7 5h10c.5522847 0 1 .44771525 1 1s-.4477153 1-1 1h-10c-.55228475 0-1-.44771525-1-1s.44771525-1 1-1zm0 4h10c.5522847 0 1 .44771525 1 1 0 .5522847-.4477153 1-1 1h-10c-.55228475 0-1-.4477153-1-1 0-.55228475.44771525-1 1-1zm0 4h10c.5522847 0 1 .4477153 1 1s-.4477153 1-1 1h-10c-.55228475 0-1-.4477153-1-1s.44771525-1 1-1zm0 4h10c.5522847 0 1 .4477153 1 1s-.4477153 1-1 1h-10c-.55228475 0-1-.4477153-1-1s.44771525-1 1-1z" opacity=".3"/><path d="m5.5 2c.82842712 0 1.5.67157288 1.5 1.5v17c0 .8284271-.67157288 1.5-1.5 1.5s-1.5-.6715729-1.5-1.5v-17c0-.82842712.67157288-1.5 1.5-1.5zm13 0c.8284271 0 1.5.67157288 1.5 1.5v17c0 .8284271-.6715729 1.5-1.5 1.5s-1.5-.6715729-1.5-1.5v-17c0-.82842712.6715729-1.5 1.5-1.5z"/></g></g></svg>

<svg width="24px" height="24px" viewBox="0 0 24 24" version="1.1" xmlns="http://www.w3.org/2000/svg" xmlns:xlink="http://www.w3.org/1999/xlink">
    <title>Icon For Ladder</title>
    <g stroke="none" stroke-width="1" fill="none" fill-rule="evenodd">
        <rect opacity="0" x="0" y="0" width="24" height="24"></rect>
        <path d="M7,5 L17,5 C17.5522847,5 18,5.44771525 18,6 C18,6.55228475 17.5522847,7 17,7 L7,7 C6.44771525,7 6,6.55228475 6,6 C6,5.44771525 6.44771525,5 7,5 Z M7,9 L17,9 C17.5522847,9 18,9.44771525 18,10 C18,10.5522847 17.5522847,11 17,11 L7,11 C6.44771525,11 6,10.5522847 6,10 C6,9.44771525 6.44771525,9 7,9 Z M7,13 L17,13 C17.5522847,13 18,13.4477153 18,14 C18,14.5522847 17.5522847,15 17,15 L7,15 C6.44771525,15 6,14.5522847 6,14 C6,13.4477153 6.44771525,13 7,13 Z M7,17 L17,17 C17.5522847,17 18,17.4477153 18,18 C18,18.5522847 17.5522847,19 17,19 L7,19 C6.44771525,19 6,18.5522847 6,18 C6,17.4477153 6.44771525,17 7,17 Z" fill="#000000" opacity="0.3"></path>
        <path d="M5.5,2 C6.32842712,2 7,2.67157288 7,3.5 L7,20.5 C7,21.3284271 6.32842712,22 5.5,22 C4.67157288,22 4,21.3284271 4,20.5 L4,3.5 C4,2.67157288 4.67157288,2 5.5,2 Z M18.5,2 C19.3284271,2 20,2.67157288 20,3.5 L20,20.5 C20,21.3284271 19.3284271,22 18.5,22 C17.6715729,22 17,21.3284271 17,20.5 L17,3.5 C17,2.67157288 17.6715729,2 18.5,2 Z" fill="#000000"></path>
    </g>
</svg>
